**kern	**kern
*staff2	*staff1
*clefG2	*clefG2
*k[]	*k[]
*M2/4	*M2/4
*C:	*C:
=-	=-
8gJ	8dd 8ddd
=274	=274
4r	(8cc#L 8ccc#
.	8ddJ) 8ddd
4b'	8r
.	8dd' 8ddd'
=275	=275
4r	(8ddL 8ddd
.	8ccJ) 8ccc
4a'	8r
.	8cc' 8ccc'
=276	=276
4r	(8bL 8bb
.	8aJ) 8aa
4d 4f#	8r
.	8a' 8aa'
=277	=277
4d 4f#	8r
.	8a 8aa
4c 4f#	8r
.	8a 8aa
=278	=278
8GL	8bb
8g	8r
8B	8.ggL
8bJ	.
.	32ff#LL
.	32ggJJJ
=279	=279
8cL	8ee
8g	8r
8e	8.ccL
8gJ	.
.	32bLL
.	32ccJJJ
=280	=280
8dL	8b
8g	8r
8d	8.aL
8f#J	.
.	32gLL
.	32aJJJ
=281	=281
8G	4g
(8gL	.
8f#	8r
8fJ)	8g
=282	=282
*-	*-
